X: 31767
T: Patrick Maloney's Favourite
R: jig
M: 6/8
K: Gmajor
~G3 BGG|dGG BAG|A2G ABc|ege dBA|
~G3 AGB|ded BAG|ABc B2A|1 GBE EDE:|2 GED E2B||
dee ede|faf ged|~e3 gfe|dBA B2B|
~e3 ede|faf ged|ABc B2A|1 GED E2B:|2 GBE EDE||

